X:6953
T:The Irish Rose
O:England
M:3/4
L:1/8
Q:1/4=
K:Bb
V:1
DE |F2 G2 A2 |B2 d2 c2 |c2 B2 G2 |
B4 DE |F2 G2 B2 |c2 d3 c|(c6) |
c4) DE |F2 G2 A2 |B2 d2 c2 |c2 B2 G2 |
B4 DE |F2 G2 B2 |c2 B3 A|(B6 |
B2) z2 d2 |c2 d2 e2 |e4 dc |B2 c2 d2 |
d4 dd |d2 c2 B2 |G2 A2 B2 |(c6 |
c2) z2 DE |F2 G2 B2 |B2 d2 c2 |c2 B2 G2 |
B4 DE |F2 G2 B2 |c2 B2 A2 |B6 |
B2 z2 F2 |{(c}d6) |{(c}{e} d4) c2 |(B6 |
B6) |{(A}B2) B3 B|A4 G2 |(F6 |
F4) DD |F4 GG |F4 DD |F4 GG |
F4 AB |G6 |A4 cc |(c6 |
c4) FF |d6 |d4 c2 |(B6 |
B6) |B2 B2 B2 |B2 A3 G|(F6 |
F4) DD |F2 G2 F2 |F4 DD |F2 G2 F2 |
F2 z2 A2 |B2 B2 d2 |{(d}c4) B2 |(B6 |B4) |]


